icons/list-check-2.svg

<svg width="24" height="24" fill="none" xmlns="http://www.w3.org/2000/svg"><g clip-path="url(#a)"><path d="M11 4h10v2H11V4Zm0 4h6v2h-6V8Zm0 6h10v2H11v-2Zm0 4h6v2h-6v-2ZM3 4h6v6H3V4Zm2 2v2h2V6H5Zm-2 8h6v6H3v-6Zm2 2v2h2v-2H5Z" /></g><defs><clipPath id="a"><path fill="#fff" d="M0 0h24v24H0z"/></clipPath></defs></svg>

<svg xmlns="http://www.w3.org/2000/svg" width="24" height="24" fill="none"><g clip-path="url(#a)"><g><path fill="#121212" d="M11 4H21V6H11V4ZM11 8H17V10H11V8ZM11 14H21V16H11V14ZM11 18H17V20H11V18ZM3 4H9V10H3V4ZM5 6V8H7V6H5ZM3 14H9V20H3V14ZM5 16V18H7V16H5Z"/></g></g><defs><clipPath id="a"><rect width="24" height="24" fill="white"/></clipPath></defs></svg>
